outputs/icons/editor/link_round.svg

<svg width="1200" height="1200" viewBox="0 0 1200 1200" fill="none" xmlns="http://www.w3.org/2000/svg"><g clip-path="url(#clip0_238_221)"><path d="M198.01 569C212.01 495.5 281.01 445 356.01 445H502.51C528.51 445 550.01 423.5 550.01 397.5C550.01 371.5 528.51 350 502.51 350H361.01C230.51 350 114.01 445.5 101.51 575.5C87.01 724.5 204.01 850 350.01 850H502.51C528.51 850 550.01 828.5 550.01 802.5C550.01 776.5 528.51 755 502.51 755H350.01C254.51 755 179.01 668 198.01 569ZM450.01 650H750.01C777.51 650 800.01 627.5 800.01 600C800.01 572.5 777.51 550 750.01 550H450.01C422.51 550 400.01 572.5 400.01 600C400.01 627.5 422.51 650 450.01 650ZM839.01 350H697.51C671.51 350 650.01 371.5 650.01 397.5C650.01 423.5 671.51 445 697.51 445H844.01C919.01 445 988.01 495.5 1002.01 569C1021.01 668 945.51 755 850.01 755H697.51C671.51 755 650.01 776.5 650.01 802.5C650.01 828.5 671.51 850 697.51 850H850.01C996.01 850 1113.01 724.5 1099.01 575.5C1086.51 445.5 969.51 350 839.01 350Z" fill="#1D1E23"/></g><defs><clipPath id="clip0_238_221"><path width="24" fill="white" d="M0 0H1200V1200H0V0z"/></clipPath></defs></svg>

<svg xmlns="http://www.w3.org/2000/svg" width="1200" height="1200" fill="none"><g clip-path="url(#a)"><path fill="#000" d="M197.998 569c14-73.5 83-124 158-124H502.5c26 0 47.5-21.5 47.5-47.5S528.5 350 502.5 350H360.998c-130.5 0-247 95.5-259.5 225.5-14.5 149 102.5 274.5 248.5 274.5H502.5c26 0 47.5-21.5 47.5-47.5S528.5 755 502.5 755H349.998c-95.5 0-171-87-152-186m252 81H750c27.5 0 50-22.5 50-50s-22.5-50-50-50H449.998c-27.501 0-50 22.5-50 50s22.499 50 50 50M839 350H697.5c-26 0-47.5 21.5-47.5 47.5s21.5 47.5 47.5 47.5H844c75 0 144 50.5 158 124 19 99-56.5 186-152 186H697.5c-26 0-47.5 21.5-47.5 47.5s21.5 47.5 47.5 47.5H850c146 0 263-125.5 249-274.5-12.5-130-129.5-225.5-260-225.5"/></g><defs><clipPath id="a"><path fill="#fff" d="M0 0h1200v1200H0z"/></clipPath></defs></svg>
